X:1

T:Rob Roy [2]

M:6/8

L:1/8

R:Jig or Quadrille

S:Ford – Traditional Music in America (1940)

Z:AK/Fiddler’s Companion

K:G

D|G2G GAB|A2A ABc|d2B c2A|B2G (AF)E|D2G GAB|

A2A ABc|dBG AFD|(G3 G2)::d|g2g gag|f2f edB|

E2d efg|a2f d2d|g2g gag|f2f edB|GAB dcB|AGF G2:|

 

ROB ROY [3]. Scottish (?), Reel. D Major. Standard tuning. AABB. Kennedy (Traditional Dance Music of Britain and Ireland: Reels and Rants), 1997; No. 173, pg. 41.

                       

ROB ROY MACGREGOR (Rob Ruadh Macghriogair). Scottish, Slow Strathspey. E Minor or E Minor ('A' and 'C' parts) & G Major ('B' and 'D' parts). Standard tuning. AABCD (Fraser): AABB'CCD (Athole). John Purser calls this tune “a classic traditional strathspey reel.” See note for "The Lady's Expostulation with Rob Roy" for a brief discussion of Rob Roy. Fraser (The Airs and Melodies Peculiar to the Highlands of Scotland and the Isles), 1874; No. 190, pgs. 78‑79. Stewart-Robertson (The Athole Collection), 1884; pg. 255. Culburnie Records CUL 121D, Alasdair Fraser & Natalie Haas – “Fire and Grace” (2004). Redwing Music RWMCD 5410, Abby Newton – “Castles, Kirks and Caves” (2001).

